X: 1
T: Kolo Kalendara  [D]
O: Croatia
Z: John Chambers <jc@trillian.mit.edu> http://trillian.mit.edu/~jc/music/
M: 2/4
L: 1/8
K: D
|: "D"[a2f2][ge][fd] | [a2f2][ge][fd] | [a2f2][ge][fd] |1 "A7"[e3c3A3][fd] :|2 "A7"[e4A4] \
|: "D"[d3A3][e/c/][f/d/] | "A7"[ge][fd][ge][af] | "D"[f3d][g/e/][f/d/] | "A7"[e4A4] :|
